client/public/assets/icons/utility/record_delete.svg

<?xml version="1.0"?><svg xmlns="http://www.w3.org/2000/svg" width="52" height="52" viewBox="0 0 52 52"><g fill="#fff"><path d="m17.2 11.6h17.6c0.9 0 1.6-0.7 1.6-1.6v-3.2c0-2.6-2.2-4.8-4.8-4.8h-11.2c-2.6 0-4.8 2.2-4.8 4.8v3.2c0 0.9 0.7 1.6 1.6 1.6z m26.4-5.6h-1.6c-0.5 0-0.8 0.3-0.8 0.8v3.2c0 3.5-2.9 6.4-6.4 6.4h-17.6c-3.5 0-6.4-2.9-6.4-6.4v-3.2c0-0.5-0.3-0.8-0.8-0.8h-1.6c-2.6 0-4.8 2.2-4.8 4.8v34.4c0 2.6 2.2 4.8 4.8 4.8h35.2c2.6 0 4.8-2.2 4.8-4.8v-34.4c0-2.6-2.2-4.8-4.8-4.8z m-9.3 36.4c0 1.4-1.1 2.4-2.4 2.4h-11.8c-1.4 0-2.4-1.1-2.4-2.4v-10.3c0-0.4 0.3-0.7 0.7-0.7h15.2c0.4 0 0.7 0.3 0.7 0.7v10.3z m2-14.9c0 0.4-0.3 0.7-0.7 0.7h-19.1c-0.4 0-0.7-0.3-0.7-0.7v-1.5c0-0.4 0.3-0.7 0.7-0.7h6.1v-2c0-1.1 0.9-2 2-2h2.9c1.1 0 2 0.9 2 2v2h6.1c0.4 0 0.7 0.3 0.7 0.7v1.5z m-12.3 7.3h-1c-0.3 0-0.5 0.2-0.5 0.5v5.7c0 0.3 0.2 0.5 0.5 0.5h1c0.3 0 0.5-0.2 0.5-0.5v-5.7c0-0.3-0.2-0.5-0.5-0.5z m4.9 0h-1c-0.3 0-0.5 0.2-0.5 0.5v5.7c0 0.3 0.2 0.5 0.5 0.5h1c0.3 0 0.5-0.2 0.5-0.5v-5.7c0-0.3-0.2-0.5-0.5-0.5z m-1.9-11.4h-2c-0.3 0-0.5 0.2-0.5 0.5v1.5h2.9v-1.5c0.1-0.3-0.1-0.5-0.4-0.5z"></path></g></svg>

<?xml version="1.0" encoding="utf-8"?>
<!-- Generator: Adobe Illustrator 21.1.0, SVG Export Plug-In . SVG Version: 6.00 Build 0)  -->
<svg version="1.1" id="Layer_1" xmlns="http://www.w3.org/2000/svg" xmlns:xlink="http://www.w3.org/1999/xlink" x="0px" y="0px"
	 width="52px" height="52px" viewBox="0 0 52 52" enable-background="new 0 0 52 52" xml:space="preserve">
<g>
	<path fill="#FFFFFF" d="M17.2,11.6h17.6c0.9,0,1.6-0.7,1.6-1.6V6.8c0-2.6-2.2-4.8-4.8-4.8H20.4c-2.6,0-4.8,2.2-4.8,4.8V10
		C15.6,10.9,16.3,11.6,17.2,11.6z"/>
	<path fill="#FFFFFF" d="M43.6,6H42c-0.5,0-0.8,0.3-0.8,0.8V10c0,3.5-2.9,6.4-6.4,6.4H17.2c-3.5,0-6.4-2.9-6.4-6.4V6.8
		C10.8,6.3,10.5,6,10,6H8.4c-2.6,0-4.8,2.2-4.8,4.8v34.4c0,2.6,2.2,4.8,4.8,4.8h35.2c2.6,0,4.8-2.2,4.8-4.8V10.8
		C48.4,8.2,46.2,6,43.6,6z M34.3,42.4c0,1.4-1.1,2.4-2.4,2.4H20.1c-1.4,0-2.4-1.1-2.4-2.4V32.1c0-0.4,0.3-0.7,0.7-0.7h15.2
		c0.4,0,0.7,0.3,0.7,0.7V42.4z M36.3,27.5c0,0.4-0.3,0.7-0.7,0.7H16.5c-0.4,0-0.7-0.3-0.7-0.7V26c0-0.4,0.3-0.7,0.7-0.7h6.1v-2
		c0-1.1,0.9-2,2-2h2.9c1.1,0,2,0.9,2,2v2h6.1c0.4,0,0.7,0.3,0.7,0.7V27.5z"/>
	<path fill="#FFFFFF" d="M24,34.8h-1c-0.3,0-0.5,0.2-0.5,0.5V41c0,0.3,0.2,0.5,0.5,0.5h1c0.3,0,0.5-0.2,0.5-0.5v-5.7
		C24.5,35,24.3,34.8,24,34.8z"/>
	<path fill="#FFFFFF" d="M28.9,34.8h-1c-0.3,0-0.5,0.2-0.5,0.5V41c0,0.3,0.2,0.5,0.5,0.5h1c0.3,0,0.5-0.2,0.5-0.5v-5.7
		C29.4,35,29.2,34.8,28.9,34.8z"/>
	<path fill="#FFFFFF" d="M27,23.4h-2c-0.3,0-0.5,0.2-0.5,0.5v1.5h2.9v-1.5C27.5,23.6,27.3,23.4,27,23.4z"/>
</g>
</svg>
